X:45
T:Steam Boat Dance. RHu.045
S:R.Hughes MS,1823,Whitchurch,Shrops.
A:Whitchurch, Shropshire
Z:Neil Brookes 2006
M:4/4
L:1/8
Q:1/2=90
R:.Hornpipe
K:G
d|g2bg d2gd|B2dB G2BG|EGcA EGdB|c4 B3d|!
g2bg d2gd|B2dB G2BG|Eedc BAGF|G2G2G2::!
Bc|d^cde dBGB|cBcA cAGF|GABc defg|fed^c d2Bc|!
d^cde dBGB|cBcA cAGF|GBde ecAF|G2G2G2:|

